TileServer und Tiles/svg/9/43_9.svg

<?xml version='1.0' encoding='UTF-8' standalone='no'?>
<svg xmlns="http://www.w3.org/2000/svg" width="497pt" viewBox="0 0 497 279" xmlns:xlink="http://www.w3.org/1999/xlink" height="279pt">
 <defs style="stroke:none;" overflow="visible">
  <path id="glyph0-3" d="M 9.484375 -6.265625 L 9.484375 -6.984375 L 5.359375 -6.984375 L 5.359375 -8.40625 L 4.578125 -8.40625 L 4.578125 -6.984375 L 0.546875 -6.984375 L 0.546875 -6.265625 L 4.59375 -6.265625 L 4.59375 -4.90625 L 1.5625 -4.90625 L 1.5625 -0.46875 L 2.296875 -0.46875 L 2.296875 -4.203125 L 4.59375 -4.203125 L 4.59375 0.796875 L 5.34375 0.796875 L 5.34375 -4.203125 L 7.796875 -4.203125 L 7.796875 -1.40625 C 7.796875 -1.28125 7.734375 -1.234375 7.5625 -1.21875 C 7.390625 -1.21875 6.796875 -1.21875 6.125 -1.234375 C 6.21875 -1.03125 6.34375 -0.734375 6.375 -0.515625 C 7.21875 -0.515625 7.78125 -0.515625 8.125 -0.640625 C 8.453125 -0.765625 8.5625 -0.984375 8.5625 -1.40625 L 8.5625 -4.90625 L 5.34375 -4.90625 L 5.34375 -6.265625 Z M 9.484375 -6.265625 "/>
  <path id="glyph0-2" d="M 1.640625 -6.625 L 8.390625 -6.625 L 8.390625 -5.1875 L 9.15625 -5.1875 L 9.15625 -7.3125 L 5.359375 -7.3125 L 5.359375 -8.375 L 4.59375 -8.375 L 4.59375 -7.3125 L 0.890625 -7.3125 L 0.890625 -5.1875 L 1.640625 -5.1875 Z M 6.75 -3.859375 C 6.484375 -2.859375 6.015625 -2.09375 5.359375 -1.515625 C 4.578125 -1.8125 3.796875 -2.078125 3.046875 -2.296875 C 3.3125 -2.78125 3.609375 -3.3125 3.890625 -3.859375 Z M 9.40625 -3.859375 L 9.40625 -4.5625 L 4.25 -4.5625 C 4.5 -5.0625 4.75 -5.546875 4.953125 -6 L 4.203125 -6.171875 C 3.96875 -5.6875 3.6875 -5.125 3.40625 -4.5625 L 0.59375 -4.5625 L 0.59375 -3.859375 L 3.046875 -3.859375 C 2.578125 -2.984375 2.09375 -2.125 1.71875 -1.484375 L 2.484375 -1.296875 C 2.5625 -1.421875 2.640625 -1.5625 2.734375 -1.703125 C 3.359375 -1.515625 4.03125 -1.28125 4.6875 -1.015625 C 3.703125 -0.4375 2.4375 -0.09375 0.828125 0.109375 C 0.984375 0.265625 1.203125 0.609375 1.28125 0.78125 C 3.03125 0.5 4.4375 0.0625 5.484375 -0.703125 C 6.65625 -0.203125 7.703125 0.3125 8.390625 0.78125 L 8.9375 0.15625 C 8.234375 -0.28125 7.21875 -0.765625 6.125 -1.21875 C 6.796875 -1.875 7.296875 -2.734375 7.59375 -3.859375 Z M 9.40625 -3.859375 "/>
  <path id="glyph0-1" d="M 3.234375 -5.84375 L 0.6875 -5.84375 L 0.6875 -5.109375 L 3.234375 -5.109375 L 3.234375 -2.3125 C 2.171875 -1.90625 1.09375 -1.484375 0.375 -1.25 L 0.71875 -0.5 C 1.4375 -0.796875 2.34375 -1.1875 3.234375 -1.5625 L 3.234375 0.671875 L 3.984375 0.671875 L 3.984375 -8.1875 L 3.234375 -8.1875 Z M 6.9375 -0.1875 C 6.5 -0.1875 6.40625 -0.296875 6.40625 -0.8125 L 6.40625 -4.09375 C 7.453125 -4.6875 8.59375 -5.359375 9.4375 -6.015625 L 8.875 -6.65625 C 8.28125 -6.09375 7.34375 -5.4375 6.40625 -4.875 L 6.40625 -8.171875 L 5.65625 -8.171875 L 5.65625 -0.8125 C 5.65625 0.234375 5.921875 0.546875 6.84375 0.546875 L 8.453125 0.546875 C 9.421875 0.546875 9.625 -0.109375 9.703125 -1.921875 C 9.5 -1.96875 9.1875 -2.125 9 -2.265625 C 8.9375 -0.625 8.859375 -0.1875 8.40625 -0.1875 Z M 6.9375 -0.1875 "/>
  <path id="glyph0-0" d="M 1 1.203125 L 9 1.203125 L 9 -8.796875 L 1 -8.796875 Z M 5 -4.203125 L 1.8125 -8.296875 L 8.1875 -8.296875 Z M 5.3125 -3.796875 L 8.5 -7.890625 L 8.5 0.296875 Z M 1.8125 0.703125 L 5 -3.390625 L 8.1875 0.703125 Z M 1.5 -7.890625 L 4.6875 -3.796875 L 1.5 0.296875 Z M 1.5 -7.890625 "/>
 </defs>
 <image width="497" xlink:href="svg/9/43_9.jpg" height="279"/>
 <g>
  <path d="M 10.722656 203.59375 L 8.175781 203.59375 L 8.175781 204.328125 L 10.722656 204.328125 L 10.722656 207.125 C 9.660156 207.53125 8.582031 207.953125 7.863281 208.1875 L 8.207031 208.9375 C 8.925781 208.640625 9.832031 208.25 10.722656 207.875 L 10.722656 210.109375 L 11.472656 210.109375 L 11.472656 201.25 L 10.722656 201.25 Z M 14.425781 209.25 C 13.988281 209.25 13.894531 209.140625 13.894531 208.625 L 13.894531 205.34375 C 14.941406 204.75 16.082031 204.078125 16.925781 203.421875 L 16.363281 202.78125 C 15.769531 203.34375 14.832031 204 13.894531 204.5625 L 13.894531 201.265625 L 13.144531 201.265625 L 13.144531 208.625 C 13.144531 209.671875 13.410156 209.984375 14.332031 209.984375 L 15.941406 209.984375 C 16.910156 209.984375 17.113281 209.328125 17.191406 207.515625 C 16.988281 207.46875 16.675781 207.3125 16.488281 207.171875 C 16.425781 208.8125 16.347656 209.25 15.894531 209.25 Z M 14.425781 209.25 " transform=" rotate(  340 22.4898 206.439) " style="fill:none;stroke-width:3;stroke-linecap:butt;stroke-linejoin:round;stroke:rgb(100%,100%,100%);stroke-opacity:0.6;stroke-miterlimit:10;"/>
  <path d="M 19.128906 202.8125 L 25.878906 202.8125 L 25.878906 204.25 L 26.644531 204.25 L 26.644531 202.125 L 22.847656 202.125 L 22.847656 201.0625 L 22.082031 201.0625 L 22.082031 202.125 L 18.378906 202.125 L 18.378906 204.25 L 19.128906 204.25 Z M 24.238281 205.578125 C 23.972656 206.578125 23.503906 207.34375 22.847656 207.921875 C 22.066406 207.625 21.285156 207.359375 20.535156 207.140625 C 20.800781 206.65625 21.097656 206.125 21.378906 205.578125 Z M 26.894531 205.578125 L 26.894531 204.875 L 21.738281 204.875 C 21.988281 204.375 22.238281 203.890625 22.441406 203.4375 L 21.691406 203.265625 C 21.457031 203.75 21.175781 204.3125 20.894531 204.875 L 18.082031 204.875 L 18.082031 205.578125 L 20.535156 205.578125 C 20.066406 206.453125 19.582031 207.3125 19.207031 207.953125 L 19.972656 208.140625 C 20.050781 208.015625 20.128906 207.875 20.222656 207.734375 C 20.847656 207.921875 21.519531 208.15625 22.175781 208.421875 C 21.191406 209 19.925781 209.34375 18.316406 209.546875 C 18.472656 209.703125 18.691406 210.046875 18.769531 210.21875 C 20.519531 209.9375 21.925781 209.5 22.972656 208.734375 C 24.144531 209.234375 25.191406 209.75 25.878906 210.21875 L 26.425781 209.59375 C 25.722656 209.15625 24.707031 208.671875 23.613281 208.21875 C 24.285156 207.5625 24.785156 206.703125 25.082031 205.578125 Z M 26.894531 205.578125 " transform=" rotate(  340 22.4898 206.439) " style="fill:none;stroke-width:3;stroke-linecap:butt;stroke-linejoin:round;stroke:rgb(100%,100%,100%);stroke-opacity:0.6;stroke-miterlimit:10;"/>
  <path d="M 36.972656 203.171875 L 36.972656 202.453125 L 32.847656 202.453125 L 32.847656 201.03125 L 32.066406 201.03125 L 32.066406 202.453125 L 28.035156 202.453125 L 28.035156 203.171875 L 32.082031 203.171875 L 32.082031 204.53125 L 29.050781 204.53125 L 29.050781 208.96875 L 29.785156 208.96875 L 29.785156 205.234375 L 32.082031 205.234375 L 32.082031 210.234375 L 32.832031 210.234375 L 32.832031 205.234375 L 35.285156 205.234375 L 35.285156 208.03125 C 35.285156 208.15625 35.222656 208.203125 35.050781 208.21875 C 34.878906 208.21875 34.285156 208.21875 33.613281 208.203125 C 33.707031 208.40625 33.832031 208.703125 33.863281 208.921875 C 34.707031 208.921875 35.269531 208.921875 35.613281 208.796875 C 35.941406 208.671875 36.050781 208.453125 36.050781 208.03125 L 36.050781 204.53125 L 32.832031 204.53125 L 32.832031 203.171875 Z M 36.972656 203.171875 " transform=" rotate(  340 22.4898 206.439) " style="fill:none;stroke-width:3;stroke-linecap:butt;stroke-linejoin:round;stroke:rgb(100%,100%,100%);stroke-opacity:0.6;stroke-miterlimit:10;"/>
  <g transform=" rotate(  340 22.4898 206.439) " style="fill:rgb(13.333333%,13.333333%,13.333333%);fill-opacity:1;">
   <use xlink:href="#glyph0-1" y="209.438813" x="7.489825"/>
   <use xlink:href="#glyph0-2" y="209.438813" x="17.489825"/>
   <use xlink:href="#glyph0-3" y="209.438813" x="27.489825"/>
  </g>
 </g>
</svg>

<svg xmlns="http://www.w3.org/2000/svg" xmlns:xlink="http://www.w3.org/1999/xlink" viewBox="0 0 497 279"> <defs overflow="visible" style="stroke:none">  <path id="c" d="M9.5-6.3V-7H5.4v-1.4h-.8V-7h-4v.7h3.9v1.4H1.6v4.4h.7v-3.7h2.3v5h.7v-5h2.5v2.8c0 .1 0 .2-.2.2H6l.4.7L8-.6c.5-.2.6-.4.6-.8V-5H5.3v-1.3Zm0 0"/>  <path id="b" d="M1.6-6.6h6.8v1.4h.8v-2.1H5.4v-1h-.8v.9H.9v2.2h.7ZM6.8-4C6.5-2.9 6-2 5.3-1.5A31 31 0 0 0 3-2.3l1-1.6Zm2.5.1v-.7H4.2L5-6l-.8-.2-.8 1.6H.6v.7H3c-.4 1-1 1.9-1.3 2.4l.8.2.2-.4 2 .7c-1 .6-2.3 1-3.9 1a3 3 0 0 1 .5.8C3 .5 4.4 0 5.5-.7 6.7-.2 7.7.3 8.4.8l.5-.6c-.7-.5-1.7-1-2.8-1.4C6.8-2 7.3-2.7 7.6-4Zm.1 0"/>  <path id="a" d="M3.2-5.8H.7v.7h2.5v2.8l-2.8 1 .3.9 2.5-1.1V.6H4v-8.8h-.8ZM7-.2c-.5 0-.6-.1-.6-.6v-3.3c1-.6 2.2-1.3 3-1.9L9-6.6c-.7.6-1.7 1.2-2.6 1.7v-3.3h-.7v7.4C5.7.2 5.9.5 6.8.5h1.7c1 0 1.1-.5 1.2-2.4L9-2.3C9-.6 8.9-.2 8.4-.2Zm0 0"/>  <path d="M1 1.2h8v-10H1Zm4-5.4L1.8-8.3h6.4Zm.3.4 3.2-4v8ZM1.8.7l3.2-4L8.2.6Zm-.3-8.6 3.2 4.1L1.5.3Zm0 0"/> </defs> <image xlink:href="svg/9/43_9.jpg" width="497" height="279"/> <path d="M10.7 203.6H8.2v.7h2.5v2.8c-1 .4-2.1.9-2.7 1l.2.9 2.5-1v2h.8v-8.7h-.8Zm3.7 5.7c-.4 0-.4-.3-.4-.7v-3.3c.9-.6 2-1.2 2.9-1.9l-.5-.6-2.5 1.8v-3.3H13v7.3c.1 1 .4 1.4 1.3 1.4H16c1 0 1.1-.7 1.2-2.5l-.7-.3c0 1.6-.2 2-.6 2Zm4.7-6.5H26v1.4h.6v-1.9h-3.8V201h-.7v1h-3.7v2.3h.6Zm5.1 2.8c-.2 1-.7 1.7-1.4 2.3a31 31 0 0 0-2.3-.8l.9-1.5Zm2.8 0v-.7h-5.3l.7-1.5-.7-.1-.8 1.6H18v.7h2.5l-1.3 2.4h.8l.2-.3 2 .7c-1 .6-2.3 1-3.9 1.1a3 3 0 0 1 .5.7c1.7-.2 3.1-.7 4.2-1.5 1 .5 2.2 1 2.9 1.5l.5-.6c-.7-.4-1.7-1-2.8-1.4.7-.6 1.2-1.5 1.5-2.6Zm10-2.4v-.7h-4.2V201h-.7v1.5H28v.7h4v1.3h-3v4.5h.8v-3.8H32v5h.8v-5h2.5v2.8c0 .2 0 .2-.3.2h-1.4l.4.7 1.6-.1c.4-.1.5-.3.5-.8v-3.5h-3.3v-1.3Zm0 0" style="fill:none;stroke-width:3;stroke-linecap:butt;stroke-linejoin:round;stroke:#fff;stroke-opacity:.6;stroke-miterlimit:10" transform=" rotate(  340 22.4898 206.439) "/> <g style="fill:#222;fill-opacity:1" transform=" rotate(  340 22.4898 206.439) ">  <use xlink:href="#a" x="7.5" y="209.4"/>  <use xlink:href="#b" x="17.5" y="209.4"/>  <use xlink:href="#c" x="27.5" y="209.4"/> </g></svg>
